X:2868
T:Folk song
C:anon.
O:France
Z:Transcribed by Frank Nordberg - http://www.musicaviva.com
F:http://abc.musicaviva.com/tunes/france/french-folk-song/french-folk-song.abc
M:3/4
L:1/4
K:C
ccc|BBB|ABc|G3|
FFF|EEE|DDD|C3|
CDE|CDE|CDE|F3|
DEF|DEF|DEF|G3|
cBA|GFE|DED|C3|]
W:
W:
W:  From Musica Viva - http://www.musicaviva.com
W:  the Internet center for free sheet music downloads.
